Numix/22/mimetypes/application-vnd.tcpdump.pcap.svg

<?xml version="1.0" encoding="UTF-8" standalone="no"?>
<svg
   xmlns:dc="http://purl.org/dc/elements/1.1/"
   xmlns:cc="http://creativecommons.org/ns#"
   xmlns:rdf="http://www.w3.org/1999/02/22-rdf-syntax-ns#"
   xmlns:svg="http://www.w3.org/2000/svg"
   xmlns="http://www.w3.org/2000/svg"
   xmlns:sodipodi="http://sodipodi.sourceforge.net/DTD/sodipodi-0.dtd"
   xmlns:inkscape="http://www.inkscape.org/namespaces/inkscape"
   width="22"
   height="22"
   viewBox="0 0 22 22"
   id="svg2"
   version="1.1"
   inkscape:version="0.91 r13725"
   sodipodi:docname="application-vnd.tcpdump.pcap.svg">
  <metadata
     id="metadata20">
    <rdf:RDF>
      <cc:Work
         rdf:about="">
        <dc:format>image/svg+xml</dc:format>
        <dc:type
           rdf:resource="http://purl.org/dc/dcmitype/StillImage" />
        <dc:title />
      </cc:Work>
    </rdf:RDF>
  </metadata>
  <defs
     id="defs18" />
  <sodipodi:namedview
     pagecolor="#ffffff"
     bordercolor="#666666"
     borderopacity="1"
     objecttolerance="10"
     gridtolerance="10"
     guidetolerance="10"
     inkscape:pageopacity="0"
     inkscape:pageshadow="2"
     inkscape:window-width="1920"
     inkscape:window-height="1013"
     id="namedview16"
     showgrid="false"
     inkscape:zoom="1"
     inkscape:cx="7.2326632"
     inkscape:cy="12.919501"
     inkscape:window-x="0"
     inkscape:window-y="27"
     inkscape:window-maximized="1"
     inkscape:current-layer="svg2">
    <inkscape:grid
       type="xygrid"
       id="grid3008"
       empspacing="5"
       visible="true"
       enabled="true"
       snapvisiblegridlinesonly="true" />
  </sodipodi:namedview>
  <path
     style="fill:#af5b63;fill-opacity:1"
     d="M 4,0 C 3.527343,0 3,0.527344 3,1 l 0,20 c 0,0.445312 0.554687,1 1,1 l 14,0 c 0.445313,0 0.992367,-0.554753 1,-1 L 19,6 13,0 Z"
     id="path4-7"
     inkscape:connector-curvature="0"
     sodipodi:nodetypes="ssssssccs" />
  <path
     style="fill:#000000;fill-opacity:0.19599998"
     d="m 14,6 5,5 0,-5 z"
     id="path6"
     inkscape:connector-curvature="0"
     sodipodi:nodetypes="cccc" />
  <path
     style="fill:#ffffff;fill-opacity:0.39200003"
     d="m 13,0 6,6 -5,0 C 13.554688,6 13,5.445312 13,4.9999998 Z"
     id="path8"
     inkscape:connector-curvature="0"
     sodipodi:nodetypes="ccssc" />
  <g
     id="g4308"
     transform="translate(-3,-7)">
    <g
       id="g4199" />
    <g
       id="g4199-4"
       transform="translate(10,2)">
      <g
         id="g4235" />
    </g>
    <g
       id="g4199-8"
       transform="translate(0,4)" />
    <g
       id="g4199-4-3"
       transform="translate(10,6)">
      <g
         id="g4235-3" />
    </g>
  </g>
  <path
     style="fill:#f9f9f9;stroke:none;stroke-width:0.34938928;stroke-miterlimit:4;stroke-dasharray:none;stroke-opacity:1"
     d="M 9.9746094 7 C 8.9553603 6.9999998 7.9355114 7.3884375 7.1621094 8.1640625 C 5.6152715 9.7152725 5.6113157 12.255392 7.1582031 13.806641 C 8.4687618 15.120933 10.304712 15.397127 12.017578 14.408203 L 14.46875 16.744141 C 14.830622 17.096372 15.402535 17.083215 15.748047 16.714844 C 16.093595 16.346482 16.084544 15.766293 15.722656 15.414062 L 13.359375 13.078125 C 14.428211 11.335891 14.101246 9.4839005 12.785156 8.1640625 C 12.011736 7.3884385 10.993858 7.0000002 9.9746094 7 z M 10 8 C 10.765616 8 11.531616 8.2931294 12.119141 8.8808594 C 12.119506 8.8812245 12.118776 8.8824472 12.119141 8.8828125 C 13.292736 10.057987 13.292736 11.942016 12.119141 13.117188 C 12.118776 13.117553 12.119506 13.118775 12.119141 13.119141 C 10.94409 14.294606 9.0559114 14.294606 7.8808594 13.119141 C 7.8804943 13.118775 7.8812242 13.117553 7.8808594 13.117188 C 6.7072651 11.942016 6.7072671 10.057987 7.8808594 8.8828125 C 7.8812242 8.8824472 7.8804943 8.8812245 7.8808594 8.8808594 C 8.4683854 8.2931294 9.234383 8 10 8 z M 10 8.375 C 9.6599505 8.375 9.3203967 8.4453318 9 8.5800781 L 9 9 L 11 9 L 11 8.5800781 C 10.68013 8.4453134 10.340072 8.375 10 8.375 z M 8 10 L 8 11 L 11 11 L 11 10 L 8 10 z M 12 10 L 12 11 L 12.621094 11 C 12.621094 10.659548 12.55238 10.320357 12.417969 10 L 12 10 z M 7.5800781 12 C 7.6796234 12.237257 7.8267313 12.458966 8 12.666016 L 8 12 L 7.5800781 12 z M 9 12 L 9 13 L 11 13 L 11 12 L 9 12 z M 12 12 L 12 12.664062 C 12.172427 12.457589 12.318763 12.236448 12.417969 12 L 12 12 z "
     id="path12423" />
</svg>

<svg xmlns="http://www.w3.org/2000/svg" viewBox="0 0 22 22">
 <path d="m 4 0 c -0.473 0 -1 0.527 -1 1 l 0 20 c 0 0.445 0.555 1 1 1 l 14 0 c 0.445 0 0.992 -0.555 1 -1 l 0 -15 -6 -6" style="fill:#af5b63;fill-opacity:1"/>
 <path d="m 14 6 5 5 0 -5 z" style="fill:#000;fill-opacity:0.196"/>
 <path d="m 13 0 6 6 -5 0 c -0.445 0 -1 -0.555 -1 -1" style="fill:#fff;fill-opacity:0.392"/>
 <path d="m 9.975 7 c -1.019 0 -2.039 0.388 -2.813 1.164 c -1.547 1.551 -1.551 4.091 -0.004 5.643 c 1.311 1.314 3.147 1.59 4.859 0.602 l 2.451 2.336 c 0.362 0.352 0.934 0.339 1.279 -0.029 c 0.346 -0.368 0.336 -0.949 -0.025 -1.301 l -2.363 -2.336 c 1.069 -1.742 0.742 -3.594 -0.574 -4.914 c -0.773 -0.776 -1.791 -1.164 -2.811 -1.164 z m 0.025 1 c 0.766 0 1.532 0.293 2.119 0.881 c 0 0 0 0.002 0 0.002 c 1.174 1.175 1.174 3.059 0 4.234 c 0 0 0 0.002 0 0.002 c -1.175 1.175 -3.063 1.175 -4.238 0 c 0 0 0 -0.002 0 -0.002 c -1.174 -1.175 -1.174 -3.059 0 -4.234 c 0 0 0 -0.002 0 -0.002 c 0.588 -0.588 1.354 -0.881 2.119 -0.881 z m 0 0.375 c -0.34 0 -0.68 0.07 -1 0.205 l 0 0.42 l 2 0 l 0 -0.42 c -0.32 -0.135 -0.66 -0.205 -1 -0.205 z m -2 1.625 l 0 1 l 3 0 l 0 -1 l -3 0 z m 4 0 l 0 1 l 0.621 0 c 0 -0.34 -0.069 -0.68 -0.203 -1 l -0.418 0 z m -4.42 2 c 0.1 0.237 0.247 0.459 0.42 0.666 l 0 -0.666 l -0.42 0 z m 1.42 0 l 0 1 l 2 0 l 0 -1 l -2 0 z m 3 0 l 0 0.664 c 0.172 -0.206 0.319 -0.428 0.418 -0.664 l -0.418 0 z" style="fill:#f9f9f9;stroke:none"/>
</svg>
